modules/hawcons-filled/icons/icon-59-file-zip.svg

<?xml version="1.0" encoding="UTF-8" standalone="no"?>
<svg width="32px" height="32px" viewBox="0 0 32 32" version="1.1" xmlns="http://www.w3.org/2000/svg" xmlns:xlink="http://www.w3.org/1999/xlink" xmlns:sketch="http://www.bohemiancoding.com/sketch/ns">
    <!-- Generator: Sketch 3.0.3 (7891) - http://www.bohemiancoding.com/sketch -->
    <title>icon 59 file zip</title>
    <desc>Created with Sketch.</desc>
    <defs></defs>
    <g id="Page-1" stroke="none" stroke-width="1" fill="none" fill-rule="evenodd" sketch:type="MSPage">
        <g id="icon-59-file-zip" sketch:type="MSArtboardGroup" fill="#929292">
            <path d="M8.00684834,10 C6.34621185,10 5,11.3422643 5,12.9987856 L5,20.0012144 C5,21.6573979 6.33599155,23 8.00684834,23 L24.9931517,23 C26.6537881,23 28,21.6577357 28,20.0012144 L28,12.9987856 C28,11.3426021 26.6640085,10 24.9931517,10 L8.00684834,10 L8.00684834,10 Z M10,19 L14,14 L14,13 L9,13 L9,14 L13,14 L9,19 L9,20 L14,20 L14,19 L10,19 L10,19 Z M16,14 L16,19 L15,19 L15,20 L18,20 L18,19 L17,19 L17,14 L18,14 L18,13 L15,13 L15,14 L16,14 L16,14 Z M19,15 L19,20 L20,20 L20,17 L21.9951185,17 C23.102384,17 24,16.1122704 24,15 C24,13.8954305 23.1061002,13 21.9951185,13 L19,13 L19,15 L19,15 Z M20,14 L20,16 L22.0010434,16 C22.5527519,16 23,15.5561352 23,15 C23,14.4477153 22.5573397,14 22.0010434,14 L20,14 L20,14 Z" id="file-zip" sketch:type="MSShapeGroup"></path>
        </g>
    </g>
</svg>

<svg width="32" height="32" xmlns="http://www.w3.org/2000/svg"><path d="M8.007 10A3.003 3.003 0 0 0 5 12.999V20A2.996 2.996 0 0 0 8.007 23h16.986A3.003 3.003 0 0 0 28 20.001V13A2.996 2.996 0 0 0 24.993 10H8.007zM10 19l4-5v-1H9v1h4l-4 5v1h5v-1h-4zm6-5v5h-1v1h3v-1h-1v-5h1v-1h-3v1h1zm3 1v5h1v-3h1.995a2 2 0 0 0 0-4H19v2zm1-1v2h2.001A.997.997 0 0 0 23 15c0-.552-.443-1-.999-1H20z" fill="#929292" fill-rule="evenodd"/></svg>
